X:603
T: Qiongren nan
N: C2109
O: China,Shanxi Xiyang
S: I, 306]
R: Xiaodiao, Erhongge]
M: 2/4
L: 1/16
K: Bb
B2A2G2FG | B2A2G2D2 | F2G2B2c2 | f2c2B4 |
z2F2A2c2 | d3AG2D2 | F2FGB2A2 | G2F2C4- | C4z4

@@@ Tune index: 7158
